icons/pm2-dark.svg

<svg width="256" height="256" viewBox="0 0 256 256" fill="none" xmlns="http://www.w3.org/2000/svg">
<path d="M196 0H60C26.8629 0 0 26.8629 0 60V196C0 229.137 26.8629 256 60 256H196C229.137 256 256 229.137 256 196V60C256 26.8629 229.137 0 196 0Z" fill="#282828"/>
<path d="M174.665 56.5356L181.869 68.199C181.869 68.199 184.528 72.5596 180.965 75.1602C177.402 77.7608 174.872 73.7417 174.872 73.7417C172.84 70.9667 170.92 68.1098 169.114 65.178C162.762 75.0289 162.659 74.9763 162.659 74.9763C171.257 90.1597 181.585 103.583 188.401 118.241C191.086 127.173 188.659 136.104 183.573 143.459C182.024 145.64 178.615 147.82 175.853 145.928C173.116 144.09 174.717 140.517 176.111 137.785C177.7 135.561 178.897 133.072 179.648 130.43C180.741 126.016 180.131 121.345 177.944 117.374C171.114 106.039 164.22 94.7428 157.262 83.4874L151.066 93.2069C155.481 101.429 160.309 107.55 164.724 116.639C166.041 120.159 166.532 122.97 166.428 126.647C166.366 130.495 165.392 134.271 163.588 137.654C159.302 145.981 149 161.191 149 161.191L155.171 171.33C155.171 171.33 165.86 154.203 166.48 153.546C167.978 151.865 170.818 151.786 172.496 152.863C174.2 153.967 174.872 156.278 174.381 157.697C170.353 164.711 159.922 179.369 159.922 179.369L166.583 190.139C166.583 190.139 188.453 159.089 196.638 144.878C199.917 138.967 203.015 132.689 203.506 127.698C204.048 116.928 194.65 107.55 185.871 92.0773C185.871 92.0773 182.514 86.5083 186.387 84.0391C190.312 81.5698 193.229 87.1125 193.229 87.1125L210.271 114.695C213.885 122.602 214.169 127.829 210.787 137.233C204.797 148.03 183.418 180.577 171.799 198.834L178.022 209C180.216 208.002 184.477 204.797 186.645 201.907C199.375 182.18 211.949 162.793 224.704 142.592C228.085 138.373 229.952 133.108 229.999 127.665C230.046 122.222 228.27 116.925 224.962 112.646C217.526 100.956 205.933 79.9674 189.253 54.0401C186.917 51.1452 184.038 48.752 180.784 47L174.665 56.5356ZM149.8 69.959V70.1166C149.8 70.2742 149.8 70.353 149.826 70.2742C149.858 70.1805 149.858 70.0789 149.826 69.9852C149.826 69.9327 149.8 69.9064 149.8 69.959Z" fill="url(#paint0_linear_0_1)"/>
<path d="M119.324 44.0436C115.34 50.7976 111.46 57.2166 106.981 64.3315C104.497 67.8728 101.266 70.8383 97.5123 73.0236C93.7582 75.2089 89.5698 76.5618 85.2363 76.989C71.7469 77.6335 66.2262 77.5046 53.8306 77.7623C51.4609 80.598 49.1172 84.6453 47.3203 87.4552C54.1692 87.6872 63.9346 87.3005 72.3198 87.5068C74.4031 88.2286 75.7312 90.2135 75.3927 92.147C75.2565 92.9949 74.8658 93.7827 74.2713 94.408C73.6769 95.0332 72.9062 95.467 72.0594 95.6529L41.0965 96.4263C41.0965 96.4263 34.7685 105.861 34.6904 106.119C47.8932 105.964 78.127 105.475 96.3037 105.217C105.731 105.629 111.486 105.114 117.397 101.53C120.652 99.365 122.996 96.452 126.85 89.8784C132.319 80.7785 134.298 77.2983 140.86 67.193C140.86 67.193 143.699 64.8471 146.824 66.6516C149.949 68.4562 148.386 72.2714 148.386 72.2714C141.485 83.5626 136.251 93.4101 129.116 103.283C118.022 115.219 101.772 113.904 91.5903 114.059L28.5447 114.884C26.1641 118.48 24.9302 122.701 25.0031 127H127.475L180 47.4464C175.531 45.0226 170.484 43.8381 165.391 44.0178L157.084 57.1908C157.084 57.1908 154.974 60.1554 151.485 58.5829C147.969 57.0103 149.193 53.9427 149.193 53.9427L154.584 44.0436H142.501C132.188 59.0469 126.824 71.2403 115.158 86.9138C106.356 94.4671 97.085 96.0653 87.2154 95.3178C85.2883 94.8537 83.9602 93.539 83.6998 91.8376C83.3353 89.5948 84.8717 87.5583 87.3716 87.017C90.8494 86.8635 94.3226 86.6229 97.7881 86.2952C102.477 85.4241 106.713 82.9629 109.767 79.3349C116.668 69.2295 123.022 57.7837 131.485 44.0178L119.324 44.0436Z" fill="url(#paint1_linear_0_1)"/>
<path d="M127.322 129H25.0559C24.692 130.963 26.1737 136.75 27.4735 139.746C28.0714 140.883 29.3712 143.053 29.6831 143.389C29.8911 143.595 36.6759 143.647 85.2357 143.905C103.952 144.035 103.407 144.009 106.916 144.706C113.155 145.946 118.406 148.788 122.591 153.153C124.177 154.807 125.347 156.279 127.063 158.914C131.17 165.217 142.92 184.385 142.92 184.385C142.92 184.385 145.545 188.725 141.62 190.895C137.695 193.065 134.809 189.112 134.809 189.112L122.435 169.118C117.626 161.11 115.546 158.475 112.193 156.228C108.696 153.876 104.587 152.584 100.365 152.508C97.5836 152.378 35.1162 152.353 35.1162 152.353L41.3552 162.169L66.1809 162.298C66.1809 162.298 70.4962 163.047 70.2102 166.638C69.9503 170.255 66.8308 170.745 66.8308 170.745C66.8308 170.745 56.1726 170.797 46.9702 171.004L52.9232 180.665C63.3214 180.975 74.6815 180.407 84.1179 181.75C88.6671 182.758 92.9564 184.798 96.4398 187.588C103.407 193.607 103.719 196.681 113.701 211.974H125.867C120.044 202.494 113.701 192.419 108.294 183.713C107.542 182.49 106.761 181.285 105.954 180.097C103.18 176.089 99.0453 173.21 94.3081 171.985C89.291 170.952 85.5476 171.262 80.7904 170.487C80.7904 170.487 78.5028 170.332 78.5028 166.612C78.5028 162.944 81.9602 162.686 81.9602 162.686C86.0415 162.117 90.8767 162.686 95.088 163.254C101.951 164.649 107.826 168.033 112.193 173.096C113.623 174.801 114.715 176.351 116.586 179.451C119.862 184.798 122.799 189.422 126.205 194.821C129.974 200.944 132.964 205.671 136.889 211.974H152.356L146.013 201.589C146.013 201.589 144.843 198.515 147.807 196.681C150.744 194.873 153.448 196.759 154.41 197.999L163.144 212C167.954 211.897 172.763 210.708 177 208.564C160.883 182.344 142.478 153.024 127.322 129Z" fill="url(#paint2_linear_0_1)"/>
<defs>
<linearGradient id="paint0_linear_0_1" x1="228.474" y1="126.621" x2="149.232" y2="127.433" gradientUnits="userSpaceOnUse">
<stop stop-color="#4B6AF2"/>
<stop offset="1" stop-color="#3CB4EA"/>
</linearGradient>
<linearGradient id="paint1_linear_0_1" x1="127.475" y1="127.052" x2="99.6996" y2="71.2981" gradientUnits="userSpaceOnUse">
<stop stop-color="#5401F9"/>
<stop offset="1" stop-color="#B41ED8"/>
</linearGradient>
<linearGradient id="paint2_linear_0_1" x1="127.322" y1="129" x2="61.0085" y2="242.743" gradientUnits="userSpaceOnUse">
<stop stop-color="#B11B96"/>
<stop offset="1" stop-color="#FF00FF"/>
</linearGradient>
</defs>
</svg>

<svg xmlns="http://www.w3.org/2000/svg" width="256" height="256" fill="none"><path fill="#282828" d="M196 0H60C26.863 0 0 26.863 0 60v136c0 33.137 26.863 60 60 60h136c33.137 0 60-26.863 60-60V60c0-33.137-26.863-60-60-60"/><path fill="url(#paint0_linear_0_1)" d="m174.665 56.536 7.204 11.663s2.659 4.36-.904 6.961-6.093-1.418-6.093-1.418a129 129 0 0 1-5.758-8.564c-6.352 9.85-6.455 9.798-6.455 9.798 8.598 15.184 18.926 28.607 25.742 43.265 2.685 8.932.258 17.863-4.828 25.218-1.549 2.181-4.958 4.361-7.72 2.469-2.737-1.838-1.136-5.411.258-8.143a23.9 23.9 0 0 0 3.537-7.355 18.08 18.08 0 0 0-1.704-13.056 3486 3486 0 0 0-20.682-33.887l-6.196 9.72c4.415 8.222 9.243 14.343 13.658 23.432 1.317 3.52 1.808 6.331 1.704 10.008a24.2 24.2 0 0 1-2.84 11.007C159.302 145.981 149 161.191 149 161.191l6.171 10.139s10.689-17.127 11.309-17.784c1.498-1.681 4.338-1.76 6.016-.683 1.704 1.104 2.376 3.415 1.885 4.834-4.028 7.014-14.459 21.672-14.459 21.672l6.661 10.77s21.87-31.05 30.055-45.261c3.279-5.911 6.377-12.189 6.868-17.18.542-10.77-8.856-20.148-17.635-35.62 0 0-3.357-5.57.516-8.039 3.925-2.47 6.842 3.073 6.842 3.073l17.042 27.583c3.614 7.907 3.898 13.134.516 22.538-5.99 10.797-27.369 43.344-38.988 61.601L178.022 209c2.194-.998 6.455-4.203 8.623-7.093 12.73-19.727 25.304-39.114 38.059-59.315a24.2 24.2 0 0 0 5.295-14.927 24.22 24.22 0 0 0-5.037-15.019c-7.436-11.69-19.029-32.679-35.709-58.606a27.9 27.9 0 0 0-8.469-7.04zM149.8 69.959v.158c0 .157 0 .236.026.157a.45.45 0 0 0 0-.289c0-.052-.026-.079-.026-.026"/><path fill="url(#paint1_linear_0_1)" d="M119.324 44.044a799 799 0 0 1-12.343 20.288 30 30 0 0 1-9.469 8.692 30.3 30.3 0 0 1-12.276 3.965c-13.49.644-19.01.516-31.405.773-2.37 2.836-4.714 6.883-6.51 9.693 6.848.232 16.614-.154 24.999.052 2.083.722 3.411 2.706 3.073 4.64a4.26 4.26 0 0 1-1.122 2.261 4.33 4.33 0 0 1-2.212 1.245l-30.962.773s-6.328 9.435-6.407 9.693c13.203-.155 43.437-.644 61.614-.902 9.427.412 15.182-.103 21.093-3.687 3.255-2.165 5.599-5.078 9.453-11.652 5.469-9.1 7.448-12.58 14.01-22.685 0 0 2.839-2.346 5.964-.541 3.125 1.804 1.562 5.62 1.562 5.62-6.901 11.29-12.135 21.138-19.27 31.011-11.094 11.936-27.344 10.621-37.526 10.776l-63.045.825A21.3 21.3 0 0 0 25.003 127h102.472L180 47.446a28.54 28.54 0 0 0-14.609-3.428l-8.307 13.173s-2.11 2.964-5.599 1.392c-3.516-1.573-2.292-4.64-2.292-4.64l5.391-9.9h-12.083c-10.313 15.004-15.677 27.197-27.343 42.87-8.802 7.554-18.073 9.152-27.943 8.405-1.927-.464-3.255-1.779-3.515-3.48-.365-2.243 1.172-4.28 3.672-4.821q5.216-.23 10.416-.722a20.56 20.56 0 0 0 11.979-6.96c6.901-10.105 13.255-21.551 21.718-35.317z"/><path fill="url(#paint2_linear_0_1)" d="M127.322 129H25.056c-.364 1.963 1.118 7.75 2.418 10.746.597 1.137 1.897 3.307 2.21 3.643.207.206 6.992.258 55.552.516 18.716.13 18.171.104 21.68.801 6.239 1.24 11.49 4.082 15.675 8.447 1.586 1.654 2.756 3.126 4.472 5.761 4.107 6.303 15.857 25.471 15.857 25.471s2.625 4.34-1.3 6.51-6.811-1.783-6.811-1.783l-12.374-19.994c-4.809-8.008-6.889-10.643-10.242-12.89a21.9 21.9 0 0 0-11.828-3.72c-2.781-.13-65.249-.155-65.249-.155l6.24 9.816 24.825.129s4.315.749 4.03 4.34c-.26 3.617-3.38 4.107-3.38 4.107s-10.658.052-19.86.259l5.952 9.661c10.398.31 21.758-.258 31.195 1.085 4.55 1.008 8.838 3.048 12.322 5.838 6.967 6.019 7.279 9.093 17.261 24.386h12.166c-5.823-9.48-12.166-19.555-17.573-28.261a95 95 0 0 0-2.34-3.616 20.35 20.35 0 0 0-11.646-8.112c-5.017-1.033-8.76-.723-13.518-1.498 0 0-2.287-.155-2.287-3.875 0-3.668 3.457-3.926 3.457-3.926 4.082-.569 8.917 0 13.128.568 6.863 1.395 12.738 4.779 17.105 9.842 1.43 1.705 2.522 3.255 4.393 6.355 3.276 5.347 6.213 9.971 9.619 15.37 3.769 6.123 6.759 10.85 10.684 17.153h15.467l-6.343-10.385s-1.17-3.074 1.794-4.908c2.937-1.808 5.641.078 6.603 1.318L163.144 212c4.81-.103 9.619-1.292 13.856-3.436-16.117-26.22-34.522-55.54-49.678-79.564"/><defs><linearGradient id="paint0_linear_0_1" x1="228.474" x2="149.232" y1="126.621" y2="127.433" gradientUnits="userSpaceOnUse"><stop stop-color="#4B6AF2"/><stop offset="1" stop-color="#3CB4EA"/></linearGradient><linearGradient id="paint1_linear_0_1" x1="127.475" x2="99.7" y1="127.052" y2="71.298" gradientUnits="userSpaceOnUse"><stop stop-color="#5401F9"/><stop offset="1" stop-color="#B41ED8"/></linearGradient><linearGradient id="paint2_linear_0_1" x1="127.322" x2="61.008" y1="129" y2="242.743" gradientUnits="userSpaceOnUse"><stop stop-color="#B11B96"/><stop offset="1" stop-color="#F0F"/></linearGradient></defs></svg>
